src/Assest/img/Star.svg

<svg width="79" height="80" viewBox="0 0 79 80" fill="none" xmlns="http://www.w3.org/2000/svg">
<path d="M43.0679 30.8716L43.2465 31.1494L43.5722 31.0941L76.4558 25.5068L48.4019 43.5492L48.1241 43.7279L48.1794 44.0535L53.7668 76.9372L35.7243 48.8833L35.5456 48.6055L35.22 48.6608L2.33635 54.2481L30.3902 36.2057L30.668 36.027L30.6127 35.7014L25.0254 2.81773L43.0679 30.8716Z" fill="white" stroke="white"/>
</svg>

<svg width="79" height="80" fill="none" xmlns="http://www.w3.org/2000/svg"><path d="m43.068 30.872.178.277.326-.055 32.884-5.587-28.054 18.042-.278.179.055.325 5.588 32.884-18.043-28.054-.178-.278-.326.056-32.884 5.587L30.39 36.206l.278-.179-.055-.326-5.588-32.883 18.043 28.054Z" fill="#fff" stroke="#fff"/></svg>
